static/images/icon-aeo-geo.svg

<svg width="40" height="40" viewBox="0 0 40 40" fill="none" xmlns="http://www.w3.org/2000/svg">
<path d="M16.3496 7.95508C16.9509 7.95518 17.4938 8.33759 17.6982 8.9043L18.7031 11.6914C19.7057 14.4718 21.8748 16.6431 24.6553 17.6445L27.4434 18.6494C28.0095 18.8526 28.3914 19.3961 28.3916 20C28.3916 20.5664 28.0558 21.0802 27.5449 21.3096L27.4404 21.3516L24.6553 22.3564C21.8751 23.359 19.7045 25.5284 18.7031 28.3086L17.6982 31.0967H17.6973C17.494 31.6631 16.9505 32.0459 16.3477 32.0459C15.7449 32.0457 15.2014 31.664 14.9971 31.0977L13.9922 28.3086C12.9895 25.527 10.8195 23.3577 8.03906 22.3564L5.25195 21.3516C4.68529 21.1471 4.30273 20.604 4.30273 20C4.30293 19.3962 4.68588 18.8539 5.25488 18.6494L8.04004 17.6445L8.03906 17.6436C10.8209 16.6422 12.9906 14.4732 13.9932 11.6914L14.9971 8.9043C15.2028 8.33645 15.7468 7.95508 16.3496 7.95508ZM16.2539 12.2012L16.1562 12.4717C14.9213 15.8998 12.2474 18.5737 8.81934 19.8086L8.54883 19.9062L8.28906 20L8.54883 20.0947L8.81738 20.1924H8.81836C12.2451 21.4273 14.9192 24.1012 16.1553 27.5293L16.2529 27.7998L16.3467 28.0596L16.4414 27.7998L16.5381 27.5293C17.773 24.1011 20.4478 21.4273 23.876 20.1924L24.1455 20.0947L24.4062 20L24.1455 19.9062L23.876 19.8086C20.4491 18.5737 17.775 15.8998 16.54 12.4717L16.4424 12.2012L16.3477 11.9414L16.2539 12.2012Z" fill="#282828" stroke="#282828" stroke-width="0.2"/>
<path d="M29.0293 1.34961C29.5732 1.34964 30.0615 1.69342 30.2461 2.20605L30.7549 3.61719V3.61816C31.205 4.86595 32.1799 5.83996 33.4277 6.29004L34.8398 6.79883C35.3553 6.98691 35.6964 7.47808 35.6953 8.01953C35.6942 8.56111 35.3492 9.04988 34.8398 9.23438L33.4277 9.74316C32.1797 10.192 31.205 11.1668 30.7549 12.416L30.2461 13.8271C30.0629 14.3384 29.5724 14.6834 29.0283 14.6836C28.4843 14.6836 27.9941 14.3391 27.8096 13.8262L27.3018 12.416C26.8517 11.1681 25.8782 10.1933 24.6289 9.74316L23.2178 9.23438C22.7076 9.05103 22.3625 8.5623 22.3613 8.01953C22.3603 7.47683 22.7045 6.9854 23.2148 6.7998V6.80078L24.6289 6.29004H24.6299C25.8776 5.83987 26.8517 4.86632 27.3018 3.61719L27.8105 2.20605C27.9938 1.69467 28.4839 1.34961 29.0293 1.34961ZM28.9434 5.51855C28.3596 6.51743 27.5301 7.34587 26.5312 7.92969L26.3838 8.0166L26.5312 8.10254C27.53 8.68507 28.3595 9.51569 28.9434 10.5146L29.0293 10.6621L29.1152 10.5137C29.6978 9.51492 30.5273 8.68632 31.5273 8.10254L31.6748 8.0166L31.5273 7.92969C30.5285 7.34714 29.6991 6.51868 29.1152 5.51855L29.0293 5.37012L28.9434 5.51855Z" fill="#282828" stroke="#282828" stroke-width="0.2"/>
<path d="M29.0273 25.3154C29.5713 25.3155 30.0616 25.6603 30.2461 26.1719L30.7549 27.583V27.584C31.205 28.8316 32.1791 29.8058 33.4268 30.2559L34.8379 30.7646C35.3486 30.9492 35.695 31.437 35.6963 31.9795C35.6974 32.4886 35.3961 32.9515 34.9385 33.1611L34.8457 33.1992L33.4287 33.709C32.1807 34.1591 31.206 35.1339 30.7559 36.3818L30.2471 37.793C30.0638 38.3044 29.5737 38.6494 29.0283 38.6494C28.4832 38.6493 27.9934 38.3049 27.8076 37.792L27.2998 36.3818C26.8509 35.1326 25.8761 34.159 24.627 33.709L23.2158 33.2002H23.2168C22.7013 33.0133 22.3582 32.5222 22.3594 31.9795C22.3607 31.4368 22.7056 30.947 23.2168 30.7637H23.2178L24.627 30.2559C25.875 29.807 26.8497 28.8323 27.2998 27.583L27.8086 26.1719C27.9918 25.6605 28.482 25.3154 29.0273 25.3154ZM28.9424 29.4854C28.3599 30.4841 27.5292 31.3136 26.5303 31.8975L26.3828 31.9834L26.5303 32.0693C27.5291 32.6519 28.3586 33.4813 28.9424 34.4814L29.0283 34.6289L29.1152 34.4814C29.6978 33.4827 30.5274 32.6532 31.5264 32.0693L31.6748 31.9834L31.5264 31.8965C30.5277 31.314 29.699 30.4842 29.1152 29.4854L29.0283 29.3379L28.9424 29.4854Z" fill="#282828" stroke="#282828" stroke-width="0.2"/>
</svg>

<svg xmlns="http://www.w3.org/2000/svg" width="40" height="40" fill="none" viewBox="0 0 40 40"><path fill="#282828" stroke="#282828" stroke-width=".2" d="M16.3 8q1 0 1.4.9l1 2.8q1.6 4.4 6 6l2.7 1a1.4 1.4 0 0 1 .1 2.6l-2.8 1q-4.3 1.6-6 6l-1 2.8a1.4 1.4 0 0 1-2.7 0l-1-2.8q-1.6-4.4-6-6l-2.7-1q-1-.3-1-1.3t1-1.4l2.7-1q4.4-1.6 6-6L15 9q.3-1 1.3-1Zm0 4.2-.1.3q-2.1 5.2-7.4 7.3l-.3.1-.2.1h.2l.3.2q5.3 2 7.4 7.3v.3l.1.3.1-.3.1-.3q2.1-5.2 7.4-7.3l.2-.1.3-.1h-.3l-.2-.2a12 12 0 0 1-7.4-7.3v-.3l-.2-.3zM29 1.3q.9 0 1.2 1l.6 1.3a4 4 0 0 0 2.6 2.7l1.4.5q.9.4.9 1.2 0 .9-.9 1.2l-1.4.5a4 4 0 0 0-2.6 2.7l-.6 1.4a1.3 1.3 0 0 1-2.4 0l-.5-1.4a4 4 0 0 0-2.7-2.7l-1.4-.5a1.3 1.3 0 0 1 0-2.4l1.4-.5a4 4 0 0 0 2.7-2.7l.5-1.4q.4-.8 1.2-.9Zm0 4.2Q28 7 26.4 8l-.1.1.1.1q1.6.9 2.4 2.4l.1.2.1-.2q1-1.6 2.5-2.5h.2l-.2-.2Q30 7 29.1 5.5v-.1zm0 19.8q.9 0 1.2.9l.6 1.4a4 4 0 0 0 2.6 2.7l1.4.5q.8.2.9 1.2 0 .8-.8 1.2l-1.5.5a4 4 0 0 0-2.6 2.7l-.6 1.4a1.3 1.3 0 0 1-2.4 0l-.5-1.4a4 4 0 0 0-2.7-2.7l-1.4-.5q-.8-.4-.8-1.2 0-.9.8-1.2l1.4-.5a4 4 0 0 0 2.7-2.7l.5-1.4q.4-.8 1.2-.9Zm0 4.2q-1 1.5-2.5 2.4h-.1l.1.2q1.6.9 2.4 2.4l.1.1.1-.1Q30 33 31.5 32l.2-.1-.2-.1q-1.5-.9-2.4-2.4v-.2z"/></svg>
